X: 490
T:The Walls of Liscarrol
M:6/8
L:1/8
R:Jig
N:Posted to the woodenflute mailing list February 2002
N:From Lesl's post :
N:But there is a spot I always play c#. My abc didn't show it
N:at all, so I'm trying to fix it with #s and leave the nats with no
N:marking - but I think I play the super nat oxo ooo where I put the *c
N:marking ..
Z:Lesl Harker
K:Dmix
d2e|dcA AGE|GEA D2E|GED cGE|GAB cde|
dcA AGE|GEA D2E|GEE cGE|DED D2d:||
d^cd e*cA|dze d*cA|GED czE|GAB cAA|
d^cd e*cA|dze d*cA|GED cGE|DED D2d||
d^cd e*cA|dze d*cA|GED czE|GAB cde|
fed edc|dcA AGE|GEE cGE|DED D3||

